assets/icons/24px/outline/text-2-24px.svg

<svg width="24" height="24" viewBox="0 0 24 24" fill="none" xmlns="http://www.w3.org/2000/svg">
<path d="M8.5 3V21M8.5 3H11.76C11.9829 3 12.0943 3 12.1882 3.00888C13.144 3.09923 13.9008 3.85599 13.9911 4.81178C14 4.90568 14 5.01712 14 5.24V5.7M8.5 3H5.24C5.01712 3 4.90568 3 4.81178 3.00888C3.85599 3.09923 3.09923 3.85599 3.00888 4.81178C3 4.90568 3 5.01712 3 5.24V5.7M8.5 21H5.96154M8.5 21H11.0385" stroke="white" stroke-width="2" stroke-linecap="round"/>
<path d="M17.5 11V21M17.5 11H19.57C19.9703 11 20.1705 11 20.3313 11.0565C20.6177 11.1571 20.8429 11.3823 20.9435 11.6687C21 11.8295 21 12.0297 21 12.43V12.5M17.5 11H15.43C15.0297 11 14.8295 11 14.6687 11.0565C14.3823 11.1571 14.1571 11.3823 14.0565 11.6687C14 11.8295 14 12.0297 14 12.43V12.5M17.5 21H16M17.5 21H19" stroke="white" stroke-width="2" stroke-linecap="round"/>
</svg>

<svg width="24" height="24" fill="none" xmlns="http://www.w3.org/2000/svg"><path d="M8.5 3v18m0-18h3.26c.223 0 .334 0 .428.009a2 2 0 0 1 1.803 1.803c.009.094.009.205.009.428v.46M8.5 3H5.24c-.223 0-.334 0-.428.009a2 2 0 0 0-1.803 1.803C3 4.906 3 5.017 3 5.24v.46M8.5 21H5.962M8.5 21h2.539M17.5 11v10m0-10h2.07c.4 0 .6 0 .761.056a1 1 0 0 1 .613.613c.056.16.056.36.056.761v.07M17.5 11h-2.07c-.4 0-.6 0-.761.056a1 1 0 0 0-.613.613c-.056.16-.056.36-.056.761v.07m3.5 8.5H16m1.5 0H19" stroke="#fff" stroke-width="2" stroke-linecap="round"/></svg>
